azure-patterns/svg-migrate-blocks.svg

<svg xmlns="http://www.w3.org/2000/svg" viewBox="0 0 97 97">
                                
                            
<path d="M10.6951 1.01941H0.589844V11.1193H10.6951V1.01941Z" fill="#0078D4"></path>
<path d="M10.6951 15.3273H0.589844V25.4272H10.6951V15.3273Z" fill="#0078D4"></path>
<path d="M81.6004 15.3273H71.4951V25.4272H81.6004V15.3273Z" fill="#0078D4"></path>
<path d="M96.5896 15.3273H86.4844V25.4272H96.5896V15.3273Z" fill="#50E6FF"></path>
<path d="M96.5896 0.96875H86.4844V11.0687H96.5896V0.96875Z" fill="#50E6FF"></path>
<path d="M10.6951 29.6359H0.589844V39.7358H10.6951V29.6359Z" fill="#0078D4"></path>
<path d="M81.6004 29.6359H71.4951V39.7358H81.6004V29.6359Z" fill="#0078D4"></path>
<path d="M96.5896 29.6359H86.4844V39.7358H96.5896V29.6359Z" fill="#50E6FF"></path>
<path d="M10.6951 43.9445H0.589844V54.0444H10.6951V43.9445Z" fill="#0078D4"></path>
<path d="M25.8528 43.9445H15.7476V54.0444H25.8528V43.9445Z" fill="#50E6FF"></path>
<path d="M81.6004 43.9445H71.4951V54.0444H81.6004V43.9445Z" fill="#0078D4"></path>
<path d="M96.5896 43.9445H86.4844V54.0444H96.5896V43.9445Z" fill="#50E6FF"></path>
<path d="M10.6951 58.2523H0.589844V68.3523H10.6951V58.2523Z" fill="#0078D4"></path>
<path d="M25.8528 58.2523H15.7476V68.3523H25.8528V58.2523Z" fill="#50E6FF"></path>
<path d="M81.6004 58.2523H71.4951V68.3523H81.6004V58.2523Z" fill="#0078D4"></path>
<path d="M96.5896 58.2523H86.4844V68.3523H96.5896V58.2523Z" fill="#50E6FF"></path>
<path d="M10.6951 72.5608H0.589844V82.6607H10.6951V72.5608Z" fill="#0078D4"></path>
<path d="M25.8528 72.5608H15.7476V82.6607H25.8528V72.5608Z" fill="#50E6FF"></path>
<path d="M81.6004 72.5608H71.4951V82.6607H81.6004V72.5608Z" fill="#0078D4"></path>
<path d="M96.5896 72.5608H86.4844V82.6607H96.5896V72.5608Z" fill="#50E6FF"></path>
<path d="M10.6951 86.8688H0.589844V96.9687H10.6951V86.8688Z" fill="#0078D4"></path>
<path d="M25.8528 86.8688H15.7476V96.9687H25.8528V86.8688Z" fill="#50E6FF"></path>
<path d="M81.6004 86.8688H71.4951V96.9687H81.6004V86.8688Z" fill="#0078D4"></path>
<path d="M96.5896 86.8688H86.4844V96.9687H96.5896V86.8688Z" fill="#50E6FF"></path>
<path d="M61.2546 61.6524L51.0988 51.5188V56.6361H35.9409V66.7697H51.0988V71.8028L61.2546 61.6524Z" fill="#0078D4"></path>
<path d="M61.2546 36.2679L51.0988 26.1174V31.2516H35.9409V41.3852H51.0988V46.4183L61.2546 36.2679Z" fill="#0078D4"></path>
<path d="M61.2546 86.8182L51.0988 76.6846V81.8019H35.9409V91.9355H51.0988V96.9686L61.2546 86.8182Z" fill="#0078D4"></path>
</svg>

<svg xmlns="http://www.w3.org/2000/svg" viewBox="0 0 97 97"><path d="M10.695 1.02H.59v10.1h10.105V1.02zM10.695 15.327H.59v10.1h10.105v-10.1zM81.6 15.327H71.495v10.1H81.6v-10.1z" fill="#0078D4"/><path d="M96.59 15.327H86.484v10.1H96.59v-10.1zM96.59.969H86.484v10.1H96.59V.969z" fill="#50E6FF"/><path d="M10.695 29.636H.59v10.1h10.105v-10.1zM81.6 29.636H71.495v10.1H81.6v-10.1z" fill="#0078D4"/><path d="M96.59 29.636H86.484v10.1H96.59v-10.1z" fill="#50E6FF"/><path d="M10.695 43.944H.59v10.1h10.105v-10.1z" fill="#0078D4"/><path d="M25.853 43.944H15.748v10.1h10.105v-10.1z" fill="#50E6FF"/><path d="M81.6 43.944H71.495v10.1H81.6v-10.1z" fill="#0078D4"/><path d="M96.59 43.944H86.484v10.1H96.59v-10.1z" fill="#50E6FF"/><path d="M10.695 58.252H.59v10.1h10.105v-10.1z" fill="#0078D4"/><path d="M25.853 58.252H15.748v10.1h10.105v-10.1z" fill="#50E6FF"/><path d="M81.6 58.252H71.495v10.1H81.6v-10.1z" fill="#0078D4"/><path d="M96.59 58.252H86.484v10.1H96.59v-10.1z" fill="#50E6FF"/><path d="M10.695 72.56H.59v10.1h10.105v-10.1z" fill="#0078D4"/><path d="M25.853 72.56H15.748v10.1h10.105v-10.1z" fill="#50E6FF"/><path d="M81.6 72.56H71.495v10.1H81.6v-10.1z" fill="#0078D4"/><path d="M96.59 72.56H86.484v10.1H96.59v-10.1z" fill="#50E6FF"/><path d="M10.695 86.869H.59v10.1h10.105v-10.1z" fill="#0078D4"/><path d="M25.853 86.869H15.748v10.1h10.105v-10.1z" fill="#50E6FF"/><path d="M81.6 86.869H71.495v10.1H81.6v-10.1z" fill="#0078D4"/><path d="M96.59 86.869H86.484v10.1H96.59v-10.1z" fill="#50E6FF"/><path d="M61.255 61.652L51.099 51.52v5.117H35.94V66.77h15.158v5.033l10.156-10.15zM61.255 36.268l-10.156-10.15v5.134H35.94v10.133h15.158v5.033l10.156-10.15zM61.255 86.818L51.099 76.685v5.117H35.94v10.133h15.158v5.034l10.156-10.15z" fill="#0078D4"/></svg>
